X: 1
T: Cuckoo's Nest, The
M: 4/4
L: 1/8
R: hornpipe
K: Gmaj
D2 || BGDG cAFA | d^cde dBGF | Ec{d}cB AGFG |
|1 (3.A.B.A (3.G.F.E (3.D.E.D B,2 :|2 (3.A.B.A GF G2 |ga ||
bg ~g2 dgBg |bg ~g2 dgBg |
|1 c'a~a2 eaca |c'a~a2 eaca :|
|2 ((3aba) ((3gag) ((3fgf) ((3efe) | ((3ded) ((3cdc) B2 |]
